X:1
T:L'amour est bien
T:Pierre Certon
T:Source : Livre premier contenant 29 chansons nouvelles à 4 parties---Paris---P.Attaignant---1535. Editor : André Vierendeels (10/12/17) Notes : Original clefs : C1, C3, C4, F4 Original note values have been halved Editorial accidentals above the staff
T:L'amour est bien
T:©
T:©
T:©
C:Pierre Certon
Z:©
%%score [ 1 [ 2 3 ] 4 ]
L:1/8
Q:1/4=97
M:2/2
K:F
V:1 treble nm="Soprano" snm="S"
V:2 treble-8 nm="Tenor 1" snm="T 1"
V:3 treble-8 nm="Tenor 2" snm="T 2"
V:4 bass nm="Bass" snm="B"
V:1
 G8 | F4 G4 | A2 A2 c2 c2 | B2 AG F2 G2 | A2 B3 A A2- | A2 G2 A4 | z2 G2 B3 A/G/ | F2 G2 D2 D2 | %8
w: L'a-|mour est|bien de per- ver-|se _ _ _ na-|tu- * * *|* * re|qu'a- prez _ _|_ m'a- voir na-|
 DEFG AGAB | c2 B2 A3 G | A2 B2 AG G2- | G2 F2 G4 | z2 A2 A2 A2 | A8 | z2 F2 G2 B2- | BA G2 F3 E | %16
w: vré _ _ _ _ _ _ _|_ de sa pounc-|tu- * * * *|* * re|et con- so-|lé|du don de|_ _ io- ys- san-|
 D2 F2 G2 B2- | BA G4 FE | F4 z2 D2 | D2 D2 GFGA | B2 B2 A3 A | A2 G2 A2 B2- | B2 A4 G2 | %23
w: ce, du don de|_ _ io- ys- san-|ce, a|mis ma my _ _ _|e en si cru-|el- le chan- *||
 A4 z2 G2 | B3 A/G/ F2 G2 | D2 D2 DEFG | AGAB c2 B2 | A3 G A2 B2 | AG G4 F2 | G4 z4 | %30
w: ce, que|de _ _ _ m'ay-|mer n'a plus _ _ _|_ _ _ _ _ vou-|loir _ _ ne|cu- * * *|re,|
 z2 G2 B3 A/G/ | F2 G2 D2 D2 | DEFG AGAB | c2 B2 A3 G | A2 B2 AG G2- |"^#" G2 F2 G4- | G8 |] %37
w: que de _ _|_ m'ay- mer n'a|plus _ _ _ _ _ _ _|_ vou- loir _|_ ne cu- * *|* * re.|_|
V:2
 d8 | d4 G4 | d2 d2 e2 e2 | d2 c2 d2 e2 | f8 | d2 d2 f3 e/d/ | c2 e2 d4 | z2 G2 B3 A/G/ | %8
w: L'a-|mour est|bien de per- ver-|se _ _ na-|tu-|re, qu'a- prez _ _|_ m'a- voir,|qu'a- prez _ _|
 F2 F2 c3 d | e2 d2 e2 f2 | d2 f4 e2 | d4 B2 d2 |"^-natural" f4 f4 | e2 c2 d2 f2 | e2 d4 cB | %15
w: _ m'a- voir na-|vré de sa poinc-|tu- * *|* re et|con- so-|lé du don de|io- ys- * *|
 c4 A4- | A2 A2 c2 d2- | d2 c2 d4- | d8 | z2 G2 G2 G2 | dcde f3 f | f2 e2 f2 f2 | f4 d2 d2 | %23
w: san- ce,|_ de io- ys-|* san- ce,|_|a mis ma|my- * * * e en|si cru- el- le|chan- ce, que|
 f3 e/d/ c2 e2 | d4 z2 G2 | B3 A/G/ F2 F2 | c3 d e2 d2 | e2 f2 d2 f2- | f2 e2 d4 | %29
w: de _ _ _ m'ay-|mer, que|de _ _ _ m'ay-|mer n'a plus vou-|loir ne cu- *||
"^-natural" B2 d2 f3 e/d/ | c2 e2 d4 | z2 G2 B3 A/G/ | F2 F2 c3 d | e2 d2 e2 f2 | d2 f4 e2 | %35
w: re, que de _ _|_ m'ay- mer|que de _ _|_ m'ay- mer n'a|plus vou- loir ne|cu- * *|
 d4 B4- | B8 |] %37
w: * re.|_|
V:3
 G4 B4 | A2 B4 AG | F2 F2 G4- | G2 G2 A2 B2 | c2 d3 cBA | B4 A4 | z4 z2 G2 | c2 BA G2 A2 | %8
w: L'a- mour|est bien _ _|_ de per-|* ver- se na-|tu- * * * *|* re,|qu'a-|prez _ _ _ m'a-|
 D2 A2 A4- | A2 F2 c2 d2 | A2 d2 cBAG | A4 G2 B2 | c2 d2 A4- | A4 z2 F2 | G2 B3 A G2 | F3 E D4- | %16
w: voir na- vré|_ de sa poinc-|* * tu- * * *|* re et|con- so- lé|_ du|don de _ io-|ys- san- ce,|
 D2 D2 E2 F2 | G4 A4 | z2 D2 D2 D2 | GFGA B2 B2 | G2 G2 F3 G | A2 B2 c2 d2- | dcBA B4 | A4 z4 | %24
w: _ de io- ys-|san- ce,|a mis ma|my- * * * e en|si cru- el- *|* le chan- *||ce,|
 z2 G2 B2 AG | F2 G2 D2 A2 | A6 F2 | c2 d2 A2 d2 | cBAG A4 | G4 z4 | z4 z2 G2 | B2 AG F2 G2 | %32
w: que de _ _|_ m'ay- mer n'a|plus vou-|loir ne cu- *||re,|qu|de _ _ _ m'ay-|
 D2 A2 A4- | A2 F2 c2 d2 | A2 d2 cBAG | A4 G4- | G8 |] %37
w: mer n'a plus|_ vou- loir ne|cu- * * * * *|* re.|_|
V:4
 z2 G,,2 G,,A,,B,,C, |"^b" D,2 B,,2 E,4 | D,2 D,2 C,2 C,2 | G,2 E,2 D,2 G,2 | F,2 B,,2 F,4 | %5
w: L'a- mour _ _ _|_ est bien|de per- ver- se|na- tu- * *||
 G,4 D,2 D,2 | F,2 C,2 G,3 F,/E,/ | D,2 E,2 B,,4 | z2 D,2 F,3 E,/D,/ | C,2 D,2 A,,2 D,2 | %10
w: * re, qu'a-|prez ma- voir _ _|_ _ _|na- vré _ _|_ de sa poinc-|
 D,2 D,2 F,2 G,2 | D,4 G,,2 G,2 | F,2 D,3 C, D,2 | A,,4 D,4 | z8 | z2 C,2 D,2 F,2- | %16
w: tur', de sa poinc-|tu- re et|con- * * *|so- lé||du don de|
 F,E, D,2 C,2 B,,2 |"^b" E,4 D,4- | D,4 z4 | z4 z2 G,,2 | G,,2 G,,2 D,C,D,E, | F,2 G,2 F,2 B,,2 | %22
w: _ _ _ io- ys-|san- ce,|_|a|mis ma my- * * *|e en si cru-|
 F,2 F,2 G,4 | D,2 D,2 F,2 C,2 | G,3 F,/E,/ D,2 E,2 | B,,4 z2 D,2 | F,3 E,/D,/ C,2 D,2 | %27
w: el- le chan-|ce, que de m'ay-|mer _ _ _ _|_ que|de _ _ _ m'ay-|
 A,,2 D,2 D,2 D,2 | F,2 G,2 D,4 | G,,4 z2 D,2 | F,2 C,2 G,3 F,/E,/ |"^b" D,2 E,2 B,,4 | %32
w: mer n'a plus vou-|loir ne cu-|re, que|de m'ay mer _ _|_ n'a plus,|
 z2 D,2 F,3 E,/D,/ | C,2 D,2 A,,2 D,2 | D,2 D,2 F,2 G,2 | D,4 G,,4- | G,,8 |] %37
w: que de _ _|_ m'ay- mer n'|plus vou- loir ne|cu- re.|_|

